X:7
T:Mantua Makers Frolic, The
M:2/4
L:1/8
B:Thompson's Compleat Collection of 200 Favourite Country Dances, vol. 2 (London, 1765)
Z:Transcribed and edited by Flynn Titford-Mock, 2007
Z:abc's:AK/Fiddler's Companion
K:Bb
B2 (3GFE | D[B,B] DF | B2 (3dcB | AFAc | B2 (3GFE | D[B,B] DF | d>B F>A | B4 :|
|: B>df>d | b>dc>B | A>Bc>A | a>cB>A | G>AB>G | g>ed>c | B>G B/A/G/^F | G4 :|
|: f>d (3dcB | b>a (3agf | e>d (3dcB | A>GF>E | DFBd | Egce | cAFA | B4 :|

